X: 22520
T: Lady Gardener's Troop
R: reel
M: 4/4
K: Fmajor
F2 AF cFAF|ECCF ECCE|F2 AF cFFf|efge fdcA|
F2 AF cFAF|ECCF ECCE|F2 AF cFFf|efge f2 fg||
ecgc acgc|ecge g2 gf|ecgc acgc|efge f2 gf|
efgf ecbg|afdf efge|d2 df c2 cf|efge HfdcA||

